packages/ui-icons/svg/Solid/deactivate-user.svg

<svg viewBox="0 0 1920 1920" version="1.1" xmlns="http://www.w3.org/2000/svg">
    <path d="M696.208213,156.026053 C902.928497,156.026053 1071.08956,324.187114 1071.08956,530.907398 L1071.08956,530.907398 L1071.08956,638.016354 C1071.08956,751.444738 1019.35593,852.020048 939.452651,920.891106 C997.505705,927.853188 1055.34454,936.636123 1112.64783,948.632326 C1274.70368,982.800083 1392.41643,1137.35831 1392.41643,1316.23026 L1392.41643,1316.23026 L1392.41643,1521.98657 L1370.5662,1538.05291 C1253.17478,1624.27562 1013.78627,1763.83859 695.45845,1763.83859 C678.535235,1763.83859 661.504911,1763.41015 644.260369,1762.66039 C363.742014,1749.48599 150.916519,1633.27277 21.743118,1537.9458 L21.743118,1537.9458 L0,1521.87946 L0,1316.12315 C0,1137.2512 117.819851,982.692974 279.98281,948.525217 C336.964775,936.636123 394.589393,927.424753 452.428229,920.355561 C372.739166,851.591612 321.326867,751.23052 321.326867,638.016354 L321.326867,638.016354 L321.326867,530.907398 C321.326867,324.187114 489.487928,156.026053 696.208213,156.026053 Z M607.307779,477.35292 C512.409244,477.35292 493.772286,547.295069 428.435823,573.750981 L428.435823,573.750981 L428.435823,638.016354 C428.435823,785.612495 548.612071,905.788744 696.208213,905.788744 C843.804354,905.788744 963.980602,785.612495 963.980602,638.016354 L963.980602,638.016354 L963.980602,530.907398 C963.980602,528.443892 963.337948,526.087495 963.230839,523.51688 C962.594612,524.095269 961.959627,524.6749 961.325586,525.255492 L959.425993,526.999872 C959.109766,527.290989 958.793701,527.582276 958.477759,527.873698 L956.583293,529.623569 C955.952099,530.207211 955.321102,530.791113 954.690001,531.374992 L952.79609,533.126282 C952.480287,533.418058 952.164383,533.709759 951.848341,534.001349 L949.950137,535.749277 C922.710236,560.775759 893.89707,584.461876 839.734213,584.461876 C722.985451,584.461876 722.985451,477.35292 607.307779,477.35292 Z M1839.91504,156 L1920,236.084956 L1719.73097,436.353982 L1920,636.623009 L1839.91504,716.707965 L1639.64602,516.438938 L1439.49027,716.707965 L1359.29204,636.623009 L1559.56106,436.353982 L1359.29204,236.084956 L1439.49027,156 L1639.64602,356.269027 L1839.91504,156 Z" stroke="none" stroke-width="1" fill-rule="evenodd"/>
</svg>

<svg viewBox="0 0 1920 1920" xmlns="http://www.w3.org/2000/svg">
    <path d="M696.208 156.026c206.72 0 374.882 168.161 374.882 374.881v107.11c0 113.428-51.734 214.003-131.637 282.874 58.053 6.962 115.892 15.745 173.195 27.741 162.056 34.168 279.768 188.726 279.768 367.598v205.757l-21.85 16.066c-117.391 86.223-356.78 225.786-675.108 225.786-16.923 0-33.953-.429-51.198-1.179-280.518-13.174-493.343-129.387-622.517-224.714L0 1521.879v-205.756c0-178.872 117.82-333.43 279.983-367.598 56.982-11.889 114.606-21.1 172.445-28.17-79.689-68.763-131.101-169.124-131.101-282.339V530.907c0-206.72 168.16-374.88 374.881-374.88Zm-88.9 321.327c-94.899 0-113.536 69.942-178.872 96.398v64.265c0 147.596 120.176 267.773 267.772 267.773s267.773-120.177 267.773-267.773V530.907c0-2.463-.643-4.82-.75-7.39-.636.578-1.271 1.158-1.905 1.738l-1.9 1.745-.948.874-1.895 1.75-1.893 1.751-1.894 1.751-.948.875-1.898 1.748c-27.24 25.027-56.053 48.713-110.216 48.713-116.749 0-116.749-107.11-232.426-107.11ZM1839.915 156 1920 236.085l-200.269 200.269L1920 636.623l-80.085 80.085-200.269-200.27-200.156 200.27-80.198-80.085 200.27-200.269-200.27-200.269L1439.49 156l200.156 200.269L1839.915 156Z" fill-rule="evenodd"/>
</svg>
